web/packages/design/src/ResourceIcon/assets/mysql-small-light.svg

<svg width="72" height="72" viewBox="0 0 72 72" fill="none" xmlns="http://www.w3.org/2000/svg">
<g clip-path="url(#clip0_6745_29853)">
<path fill-rule="evenodd" clip-rule="evenodd" d="M66.319 55.3093C62.3997 55.2113 59.3644 55.6021 56.8188 56.6794C56.0843 56.9726 54.9104 56.9726 54.8099 57.9024C55.2044 58.2932 55.2515 58.9287 55.5967 59.4693C56.1826 60.4478 57.209 61.7668 58.1413 62.4536C59.1698 63.2368 60.1983 64.0168 61.277 64.7016C63.1854 65.881 65.3408 66.563 67.199 67.7378C68.2798 68.4218 69.3533 69.3019 70.4341 70.0377C70.9708 70.4289 71.3109 71.066 71.9993 71.3081V71.16C71.654 70.7209 71.5578 70.0847 71.2167 69.5926C70.7281 69.1071 70.2374 68.664 69.7467 68.1768C68.3258 66.2689 66.5607 64.6069 64.6554 63.2368C63.0871 62.1575 59.6573 60.6895 59.0233 58.8846C59.0233 58.8846 58.972 58.8327 58.9239 58.7845C60.0016 58.6852 61.277 58.2932 62.3044 57.9964C63.967 57.5573 65.4851 57.6566 67.199 57.2176C67.9837 57.0204 68.7673 56.7741 69.5541 56.5335V56.0901C68.6679 55.2113 68.0339 54.0352 67.1037 53.2042C64.6084 51.0522 61.8629 48.9498 59.0233 47.1857C57.503 46.2069 55.5444 45.5739 53.9279 44.7401C53.343 44.446 52.3647 44.3011 52.0205 43.809C51.1385 42.733 50.6468 41.316 50.0117 40.0418C48.5929 37.3537 47.2191 34.3701 45.9971 31.5277C45.1161 29.6208 44.5773 27.714 43.4996 25.9515C38.4534 17.6321 32.9709 12.5953 24.5483 7.65263C22.7361 6.62395 20.5818 6.18383 18.2821 5.64545C17.0558 5.59422 15.8327 5.49909 14.6086 5.451C13.8239 5.10706 13.0392 4.17664 12.3549 3.73653C9.56236 1.97606 2.36707 -1.83968 0.309028 3.19919C-1.01347 6.38141 2.26767 9.51138 3.39452 11.1265C4.2263 12.2503 5.30504 13.5247 5.88991 14.7949C6.2331 15.627 6.33144 16.5093 6.67567 17.3885C7.45829 19.541 8.19173 21.9392 9.22232 23.9464C9.75906 24.974 10.346 26.0518 11.0313 26.977C11.4268 27.5185 12.1101 27.76 12.2576 28.6434C11.5744 29.6209 11.521 31.0886 11.1297 32.3128C9.36775 37.8419 10.052 44.6915 12.5505 48.7518C13.3321 49.9749 15.1955 52.6668 17.693 51.6369C19.8965 50.7577 19.4068 47.9686 20.043 45.5237C20.1895 44.9324 20.0911 44.5445 20.3841 44.1536V44.2525C21.0694 45.6205 21.7568 46.9383 22.3929 48.3129C23.9132 50.7079 26.555 53.2038 28.7606 54.8658C29.9324 55.7499 30.8636 57.2642 32.3326 57.804V57.6562H32.2364C31.9413 57.2172 31.5019 57.02 31.1095 56.679C30.2285 55.7977 29.2513 54.7208 28.5629 53.7428C26.5069 51.004 24.6927 47.9686 23.0803 44.8376C22.2946 43.3173 21.6103 41.6553 20.9731 40.1395C20.6801 39.5551 20.6802 38.6718 20.1895 38.379C19.4529 39.4542 18.3783 40.3852 17.8405 41.7022C16.9093 43.8086 16.8121 46.4013 16.4668 49.0936C16.2722 49.1447 16.3705 49.0936 16.2722 49.1908C14.7069 48.7996 14.1681 47.1853 13.579 45.8198C12.1101 42.3413 11.8631 36.7637 13.1386 32.7511C13.4796 31.7256 14.9528 28.4963 14.3627 27.5178C14.0666 26.5843 13.0883 26.0511 12.5505 25.3141C11.9154 24.3847 11.226 23.2128 10.7897 22.1831C9.61363 19.4441 9.02248 16.4093 7.75333 13.6703C7.16532 12.396 6.13473 11.0746 5.30503 9.90268C4.37279 8.58128 3.34534 7.65192 2.6098 6.08798C2.36706 5.54855 2.02387 4.66727 2.41415 4.08184C2.5104 3.68981 2.7092 3.5424 3.10155 3.44413C3.73456 2.90575 5.5488 3.58945 6.1839 3.88321C7.99711 4.61499 9.51527 5.30391 11.0313 6.32945C11.7177 6.81974 12.4522 7.74913 13.3321 7.99584H14.3627C15.929 8.3356 17.693 8.09098 19.163 8.53318C21.7568 9.36428 24.1067 10.5874 26.2139 11.9088C32.6266 15.9702 37.9156 21.7451 41.4886 28.6427C42.0777 29.7665 42.3246 30.7952 42.8624 31.9671C43.8909 34.3694 45.1653 36.8157 46.1917 39.1619C47.2191 41.4618 48.2005 43.8083 49.6716 45.7194C50.404 46.7452 53.343 47.2835 54.6655 47.8221C55.6428 48.261 57.163 48.653 58.045 49.1905C59.7096 50.2163 61.3711 51.3923 62.9406 52.5195C63.7221 53.1067 66.1715 54.3285 66.319 55.3085" fill="#00758F"/>
<path fill-rule="evenodd" clip-rule="evenodd" d="M16.3702 12.7857C15.5394 12.7857 14.9535 12.886 14.3623 13.0314V13.1296H14.4575C14.853 13.9106 15.5394 14.4532 16.0249 15.1369C16.4194 15.9199 16.7625 16.6998 17.1539 17.4839C17.202 17.4358 17.2491 17.3846 17.2491 17.3846C17.9396 16.8974 18.2818 16.1154 18.2818 14.9393C17.9857 14.5943 17.9396 14.2545 17.6927 13.9105C17.3997 13.4223 16.7625 13.1777 16.3702 12.7857Z" fill="#00758F"/>
</g>
<defs>
<clipPath id="clip0_6745_29853">
<rect width="72" height="72" fill="white"/>
</clipPath>
</defs>
</svg>

<svg xmlns="http://www.w3.org/2000/svg" width="72" height="72" fill="none" viewBox="0 0 72 72"><g fill="#00758f" fill-rule="evenodd" clip-path="url(#a)" clip-rule="evenodd"><path d="M66.319 55.31c-3.92-.099-6.955.292-9.5 1.37-.735.293-1.909.293-2.01 1.222.395.391.443 1.027.788 1.567.586.979 1.612 2.298 2.544 2.985 1.029.783 2.057 1.563 3.136 2.248 1.908 1.179 4.064 1.861 5.922 3.036 1.08.684 2.154 1.564 3.235 2.3.537.39.877 1.028 1.565 1.27v-.148c-.345-.44-.441-1.075-.782-1.567-.489-.486-.98-.929-1.47-1.416-1.421-1.908-3.186-3.57-5.092-4.94-1.568-1.08-4.998-2.547-5.632-4.352l-.1-.1c1.079-.1 2.354-.492 3.381-.789 1.663-.439 3.181-.34 4.895-.778.785-.198 1.568-.444 2.355-.685v-.443c-.886-.879-1.52-2.055-2.45-2.886-2.496-2.152-5.241-4.254-8.08-6.018-1.521-.98-3.48-1.612-5.096-2.446-.585-.294-1.563-.439-1.907-.931-.883-1.076-1.374-2.493-2.01-3.767-1.418-2.688-2.792-5.672-4.014-8.514-.88-1.907-1.42-3.814-2.497-5.576-5.047-8.32-10.53-13.357-18.952-18.3-1.812-1.028-3.966-1.468-6.266-2.007-1.226-.05-2.45-.146-3.673-.194-.785-.344-1.57-1.274-2.254-1.714C9.562 1.977 2.367-1.84.309 3.199c-1.322 3.182 1.959 6.312 3.086 7.928.831 1.123 1.91 2.398 2.495 3.668.343.832.441 1.714.786 2.594.782 2.152 1.516 4.55 2.546 6.557.537 1.028 1.124 2.106 1.81 3.031.395.541 1.078.783 1.226 1.666-.684.978-.737 2.446-1.128 3.67-1.762 5.529-1.078 12.378 1.42 16.439.782 1.223 2.645 3.915 5.143 2.885 2.203-.88 1.714-3.668 2.35-6.113.146-.592.048-.98.341-1.37v.098c.685 1.368 1.373 2.686 2.009 4.06 1.52 2.396 4.162 4.892 6.368 6.554 1.171.884 2.103 2.398 3.572 2.938v-.148h-.097c-.295-.439-.734-.636-1.126-.977-.881-.881-1.859-1.958-2.547-2.936-2.056-2.739-3.87-5.774-5.483-8.905-.785-1.52-1.47-3.183-2.107-4.699-.293-.584-.293-1.467-.784-1.76-.736 1.075-1.81 2.006-2.349 3.323-.93 2.107-1.028 4.7-1.373 7.392-.195.05-.096 0-.195.097-1.565-.391-2.104-2.006-2.693-3.371-1.469-3.479-1.716-9.056-.44-13.069.34-1.025 1.814-4.255 1.224-5.233-.296-.934-1.275-1.467-1.812-2.204-.636-.93-1.325-2.101-1.761-3.13-1.176-2.74-1.768-5.775-3.037-8.514-.588-1.274-1.618-2.595-2.448-3.767-.932-1.322-1.96-2.251-2.695-3.815-.243-.54-.586-1.42-.196-2.006.096-.392.295-.54.688-.638.633-.538 2.447.145 3.082.44 1.813.731 3.331 1.42 4.847 2.445.687.49 1.421 1.42 2.301 1.667h1.03c1.567.34 3.331.095 4.801.537 2.594.831 4.944 2.054 7.05 3.376 6.414 4.061 11.703 9.836 15.276 16.734.589 1.124.836 2.152 1.373 3.324 1.029 2.402 2.303 4.849 3.33 7.195 1.027 2.3 2.008 4.646 3.48 6.557.732 1.026 3.671 1.564 4.994 2.103.977.439 2.497.831 3.379 1.368 1.665 1.026 3.326 2.202 4.896 3.33.781.587 3.23 1.808 3.378 2.788"/><path d="M16.37 12.786c-.83 0-1.417.1-2.008.245v.099h.095c.396.78 1.082 1.323 1.568 2.007.394.783.738 1.563 1.129 2.347.048-.048.095-.1.095-.1.69-.487 1.033-1.269 1.033-2.445-.296-.345-.342-.684-.59-1.028-.292-.489-.93-.733-1.322-1.125"/></g><defs><clipPath id="a"><path fill="#fff" d="M0 0h72v72H0z"/></clipPath></defs></svg>
